humanity-icon-theme/Humanity/actions/22/go-last.svg

<?xml version="1.0" encoding="UTF-8" standalone="no"?>
<!-- Created with Inkscape (http://www.inkscape.org/) -->

<svg
   xmlns:dc="http://purl.org/dc/elements/1.1/"
   xmlns:cc="http://creativecommons.org/ns#"
   xmlns:rdf="http://www.w3.org/1999/02/22-rdf-syntax-ns#"
   xmlns:svg="http://www.w3.org/2000/svg"
   xmlns="http://www.w3.org/2000/svg"
   xmlns:xlink="http://www.w3.org/1999/xlink"
   version="1.1"
   width="22"
   height="22"
   id="svg3734">
  <metadata
     id="metadata29">
    <rdf:RDF>
      <cc:Work
         rdf:about="">
        <dc:format>image/svg+xml</dc:format>
        <dc:type
           rdf:resource="http://purl.org/dc/dcmitype/StillImage" />
        <dc:title></dc:title>
      </cc:Work>
    </rdf:RDF>
  </metadata>
  <defs
     id="defs3736">
    <linearGradient
       id="linearGradient4456">
      <stop
         id="stop4458"
         style="stop-color:#f6daae;stop-opacity:1"
         offset="0" />
      <stop
         id="stop4460"
         style="stop-color:#f0c178;stop-opacity:0"
         offset="1" />
    </linearGradient>
    <linearGradient
       id="linearGradient3390-178-986-453-4-5">
      <stop
         id="stop3624-8-6"
         style="stop-color:#bb2b12;stop-opacity:1"
         offset="0" />
      <stop
         id="stop3626-1-1"
         style="stop-color:#cd7233;stop-opacity:1"
         offset="1" />
    </linearGradient>
    <linearGradient
       x1="-48.73481"
       y1="198.54485"
       x2="-41.204426"
       y2="176.45525"
       id="linearGradient3732"
       xlink:href="#linearGradient3390-178-986-453-4-5"
       gradientUnits="userSpaceOnUse"
       gradientTransform="matrix(0.92956783,0,0,0.99594396,52.30231,-181.73954)" />
    <linearGradient
       id="linearGradient7012-661-145-733-759-865-745-661-970-94-1-0">
      <stop
         id="stop3618-1-9"
         style="stop-color:#f0c178;stop-opacity:1"
         offset="0" />
      <stop
         id="stop3270-5-6"
         style="stop-color:#e18941;stop-opacity:1"
         offset="0.5" />
      <stop
         id="stop3620-9-3"
         style="stop-color:#ec4f18;stop-opacity:1"
         offset="1" />
    </linearGradient>
    <linearGradient
       x1="-42.280197"
       y1="178.46339"
       x2="-48.73481"
       y2="196.5367"
       id="linearGradient4322"
       xlink:href="#linearGradient7012-661-145-733-759-865-745-661-970-94-1-0"
       gradientUnits="userSpaceOnUse"
       gradientTransform="matrix(0.92956783,0,0,0.99594396,52.30231,-181.73954)" />
    <linearGradient
       x1="-42.280197"
       y1="178.46339"
       x2="-48.73481"
       y2="196.5367"
       id="linearGradient4324"
       xlink:href="#linearGradient7012-661-145-733-759-865-745-661-970-94-1-0"
       gradientUnits="userSpaceOnUse"
       gradientTransform="matrix(0.92956783,0,0,0.99594396,52.30231,-181.73954)" />
    <linearGradient
       x1="-48.73481"
       y1="198.54485"
       x2="-41.204426"
       y2="176.45525"
       id="linearGradient4452"
       xlink:href="#linearGradient3390-178-986-453-4-5"
       gradientUnits="userSpaceOnUse"
       gradientTransform="matrix(0.92956783,0,0,0.99594396,52.30231,-181.73954)" />
    <linearGradient
       x1="12"
       y1="-3"
       x2="6"
       y2="16"
       id="linearGradient4462"
       xlink:href="#linearGradient4456"
       gradientUnits="userSpaceOnUse"
       gradientTransform="translate(1,0)" />
    <linearGradient
       x1="11"
       y1="-3"
       x2="6"
       y2="16"
       id="linearGradient3026"
       xlink:href="#linearGradient4456"
       gradientUnits="userSpaceOnUse"
       gradientTransform="translate(1,0)" />
    <linearGradient
       id="linearGradient3390-178-986-453-4-5-3-0-4-8">
      <stop
         id="stop3624-8-6-1-4-3-1"
         style="stop-color:#bb2b12;stop-opacity:1"
         offset="0" />
      <stop
         id="stop3626-1-1-7-8-5-3"
         style="stop-color:#cd7233;stop-opacity:1"
         offset="1" />
    </linearGradient>
    <linearGradient
       id="linearGradient4034-59-4-2-2-4-0">
      <stop
         id="stop4036-9-1-5-9-3-3"
         style="stop-color:#eeeeec;stop-opacity:1"
         offset="0" />
      <stop
         id="stop4038-0-5-5-6-1-4"
         style="stop-color:#babdb6;stop-opacity:1"
         offset="1" />
    </linearGradient>
    <linearGradient
       x1="-49.576923"
       y1="154"
       x2="-43.576923"
       y2="176"
       id="linearGradient3110"
       xlink:href="#linearGradient3390-178-986-453-4-5-3-0-4-8"
       gradientUnits="userSpaceOnUse" />
    <linearGradient
       x1="-33.576923"
       y1="162"
       x2="-55.576923"
       y2="167"
       id="linearGradient3112"
       xlink:href="#linearGradient3390-178-986-453-4-5-3-0-4-8"
       gradientUnits="userSpaceOnUse" />
    <linearGradient
       x1="-94"
       y1="190"
       x2="-76"
       y2="184"
       id="linearGradient3114"
       xlink:href="#linearGradient7012-661-145-733-759-865-745-661-970-94-1-0"
       gradientUnits="userSpaceOnUse"
       gradientTransform="matrix(0,-1,1,0,-272.57692,80)" />
    <linearGradient
       x1="-86.552246"
       y1="185.439"
       x2="-83.37072"
       y2="197.31261"
       id="linearGradient3116"
       xlink:href="#linearGradient4034-59-4-2-2-4-0"
       gradientUnits="userSpaceOnUse"
       gradientTransform="matrix(0,-1,1,0,-272,102)" />
  </defs>
  <g
     transform="matrix(-1,0,0,1,22,6)"
     id="layer1">
    <g
       transform="matrix(1,0,0,-1,55.576924,170)"
       id="g4018-8"
       style="stroke:url(#linearGradient3112);stroke-opacity:1;display:inline;enable-background:new">
      <path
         d="m -53.576924,158 0,14"
         id="path3395-1"
         style="fill:none;stroke:url(#linearGradient3110);stroke-width:4;stroke-linecap:round;stroke-linejoin:miter;stroke-miterlimit:4;stroke-opacity:1;stroke-dasharray:none;display:inline;enable-background:new" />
    </g>
    <path
       d="M 8.65,-0.525 3.5,4.99993 8.65,10.525"
       id="path3169-2-3"
       style="fill:none;stroke:url(#linearGradient3732);stroke-width:5;stroke-linecap:round;stroke-linejoin:round;stroke-miterlimit:4;stroke-opacity:1;stroke-dasharray:none;display:inline;enable-background:new" />
    <path
       d="M 19,5 7.5,4.99993"
       id="path3765"
       style="fill:none;stroke:url(#linearGradient4452);stroke-width:6;stroke-linecap:round;stroke-linejoin:round;stroke-miterlimit:4;stroke-opacity:1;stroke-dasharray:none;display:inline;enable-background:new" />
    <g
       transform="matrix(1,0,0,-1,95.57692,170)"
       id="g4030-5"
       style="stroke:url(#linearGradient3116);display:inline;enable-background:new">
      <path
         d="m -93.57692,158 0,14"
         id="path3397-3"
         style="fill:none;stroke:url(#linearGradient3114);stroke-width:2;stroke-linecap:round;stroke-linejoin:miter;stroke-miterlimit:4;stroke-opacity:1;stroke-dasharray:none;display:inline;enable-background:new" />
    </g>
    <path
       d="M 8.75009,-0.6251675 3.5,4.99993 8.750153,10.624983"
       id="path4277"
       style="fill:none;stroke:url(#linearGradient4322);stroke-width:3;stroke-linecap:round;stroke-linejoin:round;stroke-miterlimit:4;stroke-opacity:1;stroke-dasharray:none;display:inline;enable-background:new" />
    <path
       d="M 19,5 7.5,4.99993"
       id="path4279"
       style="fill:none;stroke:url(#linearGradient4324);stroke-width:4;stroke-linecap:round;stroke-linejoin:round;stroke-miterlimit:4;stroke-opacity:1;stroke-dasharray:none;display:inline;enable-background:new" />
    <path
       d="M 1.90625,-2.5 C 1.677049,-2.4563 1.495888,-2.2333 1.5,-2 l 0,14"
       id="path3397-6-7"
       style="font-size:medium;font-style:normal;font-variant:normal;font-weight:normal;font-stretch:normal;text-indent:0;text-align:start;text-decoration:none;line-height:normal;letter-spacing:normal;word-spacing:normal;text-transform:none;direction:ltr;block-progression:tb;writing-mode:lr-tb;text-anchor:start;opacity:0.41999996;color:#000000;fill:none;stroke:#f6daae;stroke-width:1;stroke-linecap:round;stroke-opacity:1;marker:none;visibility:visible;display:inline;overflow:visible;enable-background:new;font-family:Abandoned Bitplane;-inkscape-font-specification:Abandoned Bitplane" />
    <path
       d="M 3.789113,6.8489412 7.78125,11.14375 c 1,1 3.058963,-0.06138 1.5,-1.5 L 7.5,8 C 6.4606912,7.0409186 7.5,6.5 9,6.5 l 9.5,0 c 3,0 2.5,-3 0,-3 l -9,0 C 8,3.5 6.5,3.5 7.5,2 L 9.14375,0.76875 c 1.5,-2 -0.5,-2.5 -1.5,-1.5 L 3.8782155,3.1052367"
       id="path4454"
       style="opacity:0.4;fill:none;stroke:url(#linearGradient3026);stroke-width:1;stroke-linecap:round;stroke-linejoin:round;stroke-miterlimit:4;stroke-opacity:1;stroke-dasharray:none;display:inline;enable-background:new" />
    <path
       d="M 7.5,2 9.35,0.49375 c 1.5,-2 -0.5,-2.5 -1.5,-1.5 L 3.6354366,3.3440918 M 3.5399526,6.6051193 7.7125,11.28125 c 1,1 2.970198,0.02922 1.5,-1.5 L 7.5,8"
       id="path4464"
       style="opacity:0.4;fill:none;stroke:url(#linearGradient4462);stroke-width:1;stroke-linecap:round;stroke-linejoin:round;stroke-miterlimit:4;stroke-opacity:1;stroke-dasharray:none;display:inline;enable-background:new" />
    <path
       d="M 8.2625,-1.35 3.8804294,3.1049317"
       id="path4466"
       style="opacity:0.23999999;fill:none;stroke:#f6daae;stroke-width:1;stroke-linecap:round;stroke-linejoin:round;stroke-miterlimit:4;stroke-opacity:1;stroke-dasharray:none;display:inline;enable-background:new" />
  </g>
</svg>

<?xml version="1.0" encoding="UTF-8" standalone="no"?>
<!-- Created with Inkscape (http://www.inkscape.org/) -->
<svg id="svg3734" xmlns:rdf="http://www.w3.org/1999/02/22-rdf-syntax-ns#" xmlns="http://www.w3.org/2000/svg" height="22" width="22" version="1.1" xmlns:cc="http://creativecommons.org/ns#" xmlns:xlink="http://www.w3.org/1999/xlink" xmlns:dc="http://purl.org/dc/elements/1.1/">
 <metadata id="metadata29">
  <rdf:RDF>
   <cc:Work rdf:about="">
    <dc:format>image/svg+xml</dc:format>
    <dc:type rdf:resource="http://purl.org/dc/dcmitype/StillImage"/>
    <dc:title/>
   </cc:Work>
  </rdf:RDF>
 </metadata>
 <defs id="defs3736">
  <linearGradient id="linearGradient4456">
   <stop id="stop4458" style="stop-color:#f6daae" offset="0"/>
   <stop id="stop4460" style="stop-color:#f0c178;stop-opacity:0" offset="1"/>
  </linearGradient>
  <linearGradient id="linearGradient3390-178-986-453-4-5">
   <stop id="stop3624-8-6" style="stop-color:#bb2b12" offset="0"/>
   <stop id="stop3626-1-1" style="stop-color:#cd7233" offset="1"/>
  </linearGradient>
  <linearGradient id="linearGradient3732" y2="176.46" xlink:href="#linearGradient3390-178-986-453-4-5" gradientUnits="userSpaceOnUse" x2="-41.204" gradientTransform="matrix(.92957 0 0 .99594 52.302 -181.74)" y1="198.54" x1="-48.735"/>
  <linearGradient id="linearGradient7012-661-145-733-759-865-745-661-970-94-1-0">
   <stop id="stop3618-1-9" style="stop-color:#f0c178" offset="0"/>
   <stop id="stop3270-5-6" style="stop-color:#e18941" offset=".5"/>
   <stop id="stop3620-9-3" style="stop-color:#ec4f18" offset="1"/>
  </linearGradient>
  <linearGradient id="linearGradient4322" y2="196.54" xlink:href="#linearGradient7012-661-145-733-759-865-745-661-970-94-1-0" gradientUnits="userSpaceOnUse" x2="-48.735" gradientTransform="matrix(.92957 0 0 .99594 52.302 -181.74)" y1="178.46" x1="-42.28"/>
  <linearGradient id="linearGradient4462" y2="16" xlink:href="#linearGradient4456" gradientUnits="userSpaceOnUse" x2="6" gradientTransform="translate(1)" y1="-3" x1="12"/>
  <linearGradient id="linearGradient3026" y2="16" xlink:href="#linearGradient4456" gradientUnits="userSpaceOnUse" x2="6" gradientTransform="translate(1)" y1="-3" x1="11"/>
  <linearGradient id="linearGradient3110" y2="176" xlink:href="#linearGradient3390-178-986-453-4-5" gradientUnits="userSpaceOnUse" x2="-43.577" y1="154" x1="-49.577"/>
  <linearGradient id="linearGradient3112" y2="167" xlink:href="#linearGradient3390-178-986-453-4-5" gradientUnits="userSpaceOnUse" x2="-55.577" y1="162" x1="-33.577"/>
  <linearGradient id="linearGradient3114" y2="184" xlink:href="#linearGradient7012-661-145-733-759-865-745-661-970-94-1-0" gradientUnits="userSpaceOnUse" x2="-76" gradientTransform="matrix(0 -1 1 0 -272.58 80)" y1="190" x1="-94"/>
  <linearGradient id="linearGradient3116" y2="197.31" gradientUnits="userSpaceOnUse" x2="-83.371" gradientTransform="matrix(0,-1,1,0,-272,102)" y1="185.44" x1="-86.552">
   <stop id="stop4036-9-1-5-9-3-3" style="stop-color:#eeeeec" offset="0"/>
   <stop id="stop4038-0-5-5-6-1-4" style="stop-color:#babdb6" offset="1"/>
  </linearGradient>
 </defs>
 <g id="layer1" transform="matrix(-1,0,0,1,22,6)">
  <g id="g4018-8" style="stroke:url(#linearGradient3112);enable-background:new" transform="matrix(1 0 0 -1 55.577 170)">
   <path id="path3395-1" style="stroke-width:4;stroke:url(#linearGradient3110);stroke-linecap:round;enable-background:new;fill:none" d="m-53.577 158v14"/>
  </g>
  <path id="path3169-2-3" style="stroke-linejoin:round;stroke-width:5;stroke:url(#linearGradient3732);stroke-linecap:round;enable-background:new;fill:none" d="m8.65-0.525-5.15 5.5249 5.15 5.5251"/>
  <path id="path3765" style="stroke-linejoin:round;enable-background:new;stroke:url(#linearGradient3732);stroke-linecap:round;stroke-width:6;fill:none" d="m19 5-11.5-0.0001"/>
  <g id="g4030-5" style="stroke:url(#linearGradient3116);enable-background:new" transform="matrix(1 0 0 -1 95.577 170)">
   <path id="path3397-3" style="stroke-width:2;stroke:url(#linearGradient3114);stroke-linecap:round;enable-background:new;fill:none" d="m-93.577 158v14"/>
  </g>
  <path id="path4277" style="stroke-linejoin:round;stroke-width:3;stroke:url(#linearGradient4322);stroke-linecap:round;enable-background:new;fill:none" d="m8.7501-0.62517-5.2501 5.6251 5.2502 5.6251"/>
  <path id="path4279" style="stroke-linejoin:round;enable-background:new;stroke:url(#linearGradient4322);stroke-linecap:round;stroke-width:4;fill:none" d="m19 5-11.5-0.0001"/>
  <path id="path3397-6-7" style="opacity:0.42;enable-background:new;block-progression:tb;text-indent:0;color:#000000;stroke:#f6daae;stroke-linecap:round;text-transform:none;fill:none" d="m1.9062-2.5c-0.2292 0.0437-0.4103 0.2667-0.4062 0.5v14"/>
  <path id="path4454" style="opacity:.4;stroke-linejoin:round;stroke:url(#linearGradient3026);stroke-linecap:round;enable-background:new;fill:none" d="m3.7891 6.8489 3.9921 4.2951c1 1 3.059-0.06138 1.5-1.5l-1.7812-1.644c-1.0393-0.9591 0-1.5 1.5-1.5h9.5c3 0 2.5-3 0-3h-9c-1.5 0-3 0-2-1.5l1.6438-1.2312c1.5-2-0.5-2.5-1.5-1.5l-3.7656 3.8364"/>
  <path id="path4464" style="opacity:.4;stroke-linejoin:round;stroke:url(#linearGradient4462);stroke-linecap:round;enable-background:new;fill:none" d="m7.5 2 1.85-1.5062c1.5-2-0.5-2.5-1.5-1.5l-4.2146 4.3503m-0.0954 3.261 4.1725 4.6759c1 1 2.9702 0.02922 1.5-1.5l-1.7125-1.781"/>
  <path id="path4466" style="opacity:0.24;stroke-linejoin:round;stroke:#f6daae;stroke-linecap:round;enable-background:new;fill:none" d="m8.2625-1.35-4.3821 4.4549"/>
 </g>
</svg>
